X: 1
T: Wren, The
M: 4/4
L: 1/8
R: reel
K: Bmin
B2f2f2 ef | g2e2 edcd| eAce efed|c2c2 dcBA|
B2f2f2 ef|g2e2 edcd|eAce efed|c2B2 BAFA:|
B3A Bcdc|B2 B2 c3d|eAce efed|c2 c2 dcBA|
B3A Bcdc|B2 B2 c3d|eAce efed|c2B2B2A2:|
